icons/src/fluent/svg/arrow_circle_right_24_filled.svg

<svg width="24" height="24" viewBox="0 0 24 24" fill="none" xmlns="http://www.w3.org/2000/svg">
<path d="M12.001 2C17.5238 2 22.001 6.47715 22.001 12C22.001 17.5228 17.5238 22 12.001 22C6.47813 22 2.00098 17.5228 2.00098 12C2.00098 6.47715 6.47813 2 12.001 2ZM12.7813 7.46897L12.6972 7.39635C12.4362 7.2027 12.078 7.20031 11.8146 7.38918L11.7206 7.46897L11.648 7.55308C11.4544 7.81407 11.452 8.17229 11.6409 8.43568L11.7206 8.52963L14.4403 11.2493H7.75027L7.6485 11.2561C7.31571 11.3013 7.05227 11.5647 7.00712 11.8975L7.00027 11.9993L7.00712 12.1011C7.05227 12.4339 7.31571 12.6973 7.6485 12.7424L7.75027 12.7493H14.4403L11.72 15.4697L11.6474 15.5538C11.4295 15.8474 11.4536 16.264 11.7198 16.5303C11.9861 16.7967 12.4027 16.8209 12.6964 16.6032L12.7805 16.5306L16.782 12.5306L16.8547 12.4464C17.0484 12.1854 17.0508 11.8272 16.8619 11.5638L16.7821 11.4698L12.7813 7.46897L12.6972 7.39635L12.7813 7.46897Z" fill="#212121"/>
</svg>

<svg width="24" height="24" fill="none" viewBox="0 0 24 24" xmlns="http://www.w3.org/2000/svg"><path d="M12 2.001c5.524 0 10 4.477 10 10s-4.476 10-10 10c-5.522 0-10-4.477-10-10s4.478-10 10-10Zm.781 5.469-.084-.073a.75.75 0 0 0-.883-.007l-.094.08-.072.084a.75.75 0 0 0-.007.883l.08.094 2.719 2.72H7.75l-.102.006a.75.75 0 0 0-.641.642L7 12l.007.102a.75.75 0 0 0 .641.641l.102.007h6.69l-2.72 2.72-.073.085a.75.75 0 0 0 1.05 1.05l.083-.073 4.002-4 .072-.085a.75.75 0 0 0 .008-.882l-.08-.094-4-4.001-.085-.073.084.073Z" fill="#212121"/></svg>
